Adwaita++-Dark/actions/16/path-reverse.svg

<svg viewBox="0 0 24 24" xmlns="http://www.w3.org/2000/svg">
  <path d="m19 4c0 3.5252626-2.609416 6.848181-6 7.408203v1.013672c3.945283-.558506 7-4.3429694 7-8.421875zm-11 1-2 1.5 2 1.5v-1h5v-1h-5zm3 6.578125c-3.9452826.558509-7 4.34299-7 8.421875h1c0-3.525256 2.6094159-6.84818 6-7.408203zm5 4.421875v1h-5v1h5v1l2-1.5z" fill="#e6ddff"/>
  <path d="m10 10v4h4v-4zm1 1h2v2h-2z" fill="#f34f17"/>
</svg>

<svg xmlns="http://www.w3.org/2000/svg" viewBox="0 0 24 24">
 <defs>
  <style id="current-color-scheme" type="text/css">
   .ColorScheme-Text { color:#E6DDFF; } .ColorScheme-Highlight { color:#f34f17; }
  </style>
 </defs>
 <path style="fill:currentColor" class="ColorScheme-Text" d="M 19 4 C 19 7.5252626 16.390584 10.848181 13 11.408203 L 13 12.421875 C 16.945283 11.863369 20 8.0789056 20 4 L 19 4 z M 8 5 L 6 6.5 L 8 8 L 8 7 L 13 7 L 13 6 L 8 6 L 8 5 z M 11 11.578125 C 7.0547174 12.136634 4 15.921115 4 20 L 5 20 C 5 16.474744 7.6094159 13.15182 11 12.591797 L 11 11.578125 z M 16 16 L 16 17 L 11 17 L 11 18 L 16 18 L 16 19 L 18 17.5 L 16 16 z"/>
 <path style="fill:currentColor" class="ColorScheme-Highlight" d="M 10 10 L 10 14 L 14 14 L 14 10 L 10 10 z M 11 11 L 13 11 L 13 13 L 11 13 L 11 11 z"/>
</svg>
